public/images/icons/next.svg

<svg width="51" height="44" viewBox="0 0 51 44" fill="none" xmlns="http://www.w3.org/2000/svg">
<path d="M23.8014 43.056L50.8014 22.176V20.808L23.8014 0L17.3934 7.92L34.4574 19.928V20H0.401367V23H34.4574V23.072L17.3934 35.136L23.8014 43.056Z" fill="#001D3D"/>
</svg>

<svg width="51" height="44" fill="none" xmlns="http://www.w3.org/2000/svg"><path d="M23.801 43.056l27-20.88v-1.368L23.801 0l-6.408 7.92 17.064 12.008V20H.401v3h34.056v.072L17.393 35.136l6.408 7.92z" fill="#001D3D"/></svg>
